X: 10533
T: ROTHEMURCHIE'S RANT
Q: "Slowish"
%R: strathspey
B: "Edinburgh Repository of Music" v.1 p.53 #3
F: http://digital.nls.uk/special-collections-of-printed-music/pageturner.cfm?id=87776133
Z: 2015 John Chambers <jc:trillian.mit.edu>
M: C
L: 1/8
K: D
A |\
F>EFD F<AA2 | d>AB>A d>ABd |\
F>DFD F<A A>d | B>dA>d FE E :|
|: a |\
{g}f2e>d e>fec | d>efe f/e/d/c/ d>A |\
B<B b>a {g}f2e>d | B>d A>d FE E :|

%%sep 2 1 500
%%sep 1 1 500

